svg/food/pizza_line.svg

<svg xmlns="http://www.w3.org/2000/svg" width="24" height="24" viewBox="0 0 24 24"><g fill="none" fill-rule="evenodd"><path d="M24,0 L24,24 L0,24 L0,0 L24,0 Z M12.5935,23.2578 L12.5819,23.2595 L12.5109,23.295 L12.4919,23.2987 L12.4767,23.295 L12.4057,23.2595 C12.3958,23.2564 12.387,23.259 12.3821,23.2649 L12.378,23.2758 L12.3609,23.7031 L12.3659,23.7235 L12.3769,23.7357 L12.4805,23.8097 L12.4953,23.8136 L12.5071,23.8097 L12.6107,23.7357 L12.6233,23.7197 L12.6267,23.7031 L12.6096,23.2758 C12.6076,23.2657 12.601,23.2593 12.5935,23.2578 Z M12.8584,23.1453 L12.8445,23.1473 L12.6598,23.2397 L12.6499,23.2499 L12.6472,23.2611 L12.6651,23.6906 L12.6699,23.7034 L12.6784,23.7105 L12.8793,23.8032 C12.8914,23.8069 12.9022,23.803 12.9078,23.7952 L12.9118,23.7812 L12.8777,23.1665 C12.8753,23.1546 12.8674,23.147 12.8584,23.1453 Z M12.143,23.1473 C12.1332,23.1424 12.1222,23.1453 12.1156,23.1526 L12.1099,23.1665 L12.0758,23.7812 C12.0751,23.7927 12.0828,23.8019 12.0926,23.8046 L12.1083,23.8032 L12.3092,23.7105 L12.3186,23.7024 L12.3225,23.6906 L12.3404,23.2611 L12.3372,23.2485 L12.3278,23.2397 L12.143,23.1473 Z"/><path fill="#09244B" d="M11.5,3 C12.01285,3 12.4355092,3.38604429 12.4932725,3.88337975 L12.5,4 L12.5,11.1908 L19.4394,9.29818 C19.6954,9.22837 19.9686,9.26315 20.1989,9.39485 C20.4293,9.52655 20.5978,9.74439 20.6675,10.0004 C20.8845,10.798 21,11.6363 21,12.5 C21,17.7467 16.7467,22 11.5,22 C6.25329,22 2,17.7467 2,12.5 C2,7.2533 6.25329,3 11.5,3 Z M10.5,5.06609 C6.83064,5.55498 4,8.69693 4,12.5 C4,16.6421 7.35786,20 11.5,20 C15.6421,20 19,16.6421 19,12.5 C19,12.2757333 18.9901778,12.0539556 18.9709778,11.8349926 L18.9352,11.5087 L11.7631,13.4648 C11.4624,13.5468 11.1407,13.4839 10.893,13.2947 C10.6762625,13.12915 10.537925,12.8835156 10.5067271,12.6158791 L10.5,12.5 L10.5,5.06609 Z M12.5,14 C13.8807,14 15,15.1193 15,16.5 C15,17.8807 13.8807,19 12.5,19 C11.1193,19 10,17.8807 10,16.5 C10,15.1193 11.1193,14 12.5,14 Z M12.5,16 C12.2239,16 12,16.2239 12,16.5 C12,16.7761 12.2239,17 12.5,17 C12.7761,17 13,16.7761 13,16.5 C13,16.2239 12.7761,16 12.5,16 Z M17,13 C17.51285,13 17.9355092,13.386027 17.9932725,13.8833761 L18,14.01 C18,14.5623 17.5523,15.01 17,15.01 C16.48715,15.01 16.0644908,14.623973 16.0067275,14.1266239 L16,14 C16,13.4477 16.4477,13 17,13 Z M7.5,12 C8.32843,12 9,12.6716 9,13.5 C9,14.3284 8.32843,15 7.5,15 C6.67157,15 6,14.3284 6,13.5 C6,12.6716 6.67157,12 7.5,12 Z M15.294,2.04412 C17.43,2.70052 19.2427,4.08789 20.4426,5.91261 C20.5965,6.14656 20.6452,6.4343 20.5769,6.70586 C20.5184429,6.93861714 20.3785816,7.1412151 20.1847729,7.27835079 L20.0835,7.3413 L14.4764,10.3792 C14.1424,10.5602 13.7348,10.5363 13.4243,10.3177 C13.1482111,10.1233 12.9912728,9.80484272 13.0003307,9.47283306 L13.0116,9.34791 L14.0119,2.84791 C14.0561,2.56077 14.223,2.30705 14.4691,2.15274 C14.7153,1.99843 15.0163,1.95878 15.294,2.04412 Z M8,8 C8.51283143,8 8.93550653,8.38604429 8.9932722,8.88337975 L9,9.01 C9,9.56229 8.55228,10.01 8,10.01 C7.48716857,10.01 7.06449347,9.62396434 7.0067278,9.1266221 L7,9 C7,8.44772 7.44772,8 8,8 Z M15.7984,4.38843 L15.2947,7.66116 L18.1025,6.13994 C17.4581,5.41658 16.6762,4.81907 15.7984,4.38843 Z"/></g></svg>

<svg xmlns="http://www.w3.org/2000/svg" width="24" height="24"><g fill="none" fill-rule="evenodd"><path d="M24 0v24H0V0zM12.594 23.258l-.012.002-.071.035-.02.004-.014-.004-.071-.036c-.01-.003-.019 0-.024.006l-.004.01-.017.428.005.02.01.013.104.074.015.004.012-.004.104-.074.012-.016.004-.017-.017-.427c-.002-.01-.009-.017-.016-.018m.264-.113-.014.002-.184.093-.01.01-.003.011.018.43.005.012.008.008.201.092c.012.004.023 0 .029-.008l.004-.014-.034-.614c-.003-.012-.01-.02-.02-.022m-.715.002a.023.023 0 0 0-.027.006l-.006.014-.034.614c0 .012.007.02.017.024l.015-.002.201-.093.01-.008.003-.011.018-.43-.003-.012-.01-.01z"/><path fill="#09244B" d="M11.5 3a1 1 0 0 1 .993.883L12.5 4v7.19l6.94-1.892a1 1 0 0 1 1.227.702A9.5 9.5 0 1 1 11.5 3m-1 2.066A7.501 7.501 0 0 0 11.5 20a7.5 7.5 0 0 0 7.471-8.165l-.036-.326-7.172 1.956a1 1 0 0 1-1.256-.85L10.5 12.5zm2 8.934a2.5 2.5 0 1 1 0 5 2.5 2.5 0 0 1 0-5m0 2a.5.5 0 1 0 0 1 .5.5 0 0 0 0-1m4.5-3a1 1 0 0 1 .993.883l.007.127a1 1 0 0 1-1.993.117L16 14a1 1 0 0 1 1-1m-9.5-1a1.5 1.5 0 1 1 0 3 1.5 1.5 0 0 1 0-3m7.794-9.956a9.519 9.519 0 0 1 5.149 3.869 1 1 0 0 1-.258 1.365l-.101.063-5.608 3.038A1 1 0 0 1 13 9.473l.012-.125 1-6.5a1 1 0 0 1 1.282-.804M8 8a1 1 0 0 1 .993.883L9 9.01a1 1 0 0 1-1.993.117L7 9a1 1 0 0 1 1-1m7.798-3.612-.503 3.273 2.807-1.521a7.53 7.53 0 0 0-2.304-1.752"/></g></svg>
